X:1796
T:Jockey at the Fair, The
T:An Riamanaige Ag An Aonac
C:"collected by J.O;Neill"
S:1796 O'Neill's Music of Ireland
B:O'Neill's 1796
Z:Transcribed by Robert Thorpe (thorpe@skep.com)
Z:ABCMUS 1.0
M:6/8
L:1/8
K:G
D|G2 A B2 c|d2 g d2 c|BdG GFG|cBc A2 c|
d^cd efg|a2 f d2 g|fed AB^c d3-d2:|
f/-g/|afd afd|c2 c B2 d|dgd dgd|c2 c B2 d|
e2 f gfe|d2 c B2 d|edc B2 A|B2 G E2 F|
G2 G GBd|e2 f g2 e|dBG A2 B|E2 F G2 A|
B2 g B2 A|G3-G2:|


